X:1
T:Rejoice, the King Is Risen
T:J. F. Kinsey
T:Rejoice, the King Is Risen
T:Public Domain
T:Public Domain
C:J. F. Kinsey
Z:Public Domain
%%score ( 1 2 ) ( 3 4 )
L:1/8
M:6/8
K:Bb
V:1 treble 
V:2 treble 
V:3 bass 
V:4 bass 
V:1
 [DF] | [DF]2 [DB] [DB]2 [Ec] | [Fd] [Fd]4 [Fd] | [Fe]2 [Fd] [Fe]2 [Fd] | [Fc]3- [Fc]2 [DF] | %5
w: 1.~Re-|joice, the King is|ris- en, He|lives to- day on|high; * The|
w: 2.~The|ris- en King stands|long- ing To|meet us at God’s|throne; * To|
w: 3.~Dear|Je- sus, we are|com- ing A-|long the nar- row|way; * We’ll|
 [CF]2 [DF] [EA]2 [DB] | [Fc] [Fc]4 [Fc]/[Fc]/ | (cd)[Fc] [=EB]2 [EG] | F3- F2 ||"^Refrain" [EF] | %10
w: grave no more a|pris- on, But the|door- * way to the|Re- *|re-|
w: Him we may go|throng- ing, Sin- ce|an- * gels moved the|||
w: meet you in the|morn- ing Of the|re- * sur- rect- ion|||
 ([DF]2 [DF]2 [FB])[Fd] | [Ff]3- [Ff]2 [Fd] | [Fe]2 [Fd] [Fc]2 [FB] | [FA]3- [FA]2 [EF] | %14
w: joice, * * Our|prais- * es|we will sing; Re-|joice, * re-|
w: ||||
w: ||||
 ([DF]2 [DF]2 [FB])[Fd] | [Fe]3- [Fe]2 [Fe] | [Fd]2 [FB] [Fd]2 [Ec] | [DB]3- [DB]2 |] %18
w: joice, * * In|Christ * the|ris- en King. *||
w: ||||
w: ||||
V:2
 x | x6 | x6 | x6 | x6 | x6 | x6 | F2 x4 | F3- F2 || x | x6 | x6 | x6 | x6 | x6 | x6 | x6 | x5 |] %18
w: |||||||sky.|joice, *||||||||||
w: |||||||stone.|||||||||||
w: |||||||day.|||||||||||
V:3
 [B,,B,] | [B,,B,]2 [B,,F,] [B,,F,]2 [B,,B,] | [B,,B,] [B,,B,]4 [B,,B,] | %3
w: ~|~ ~ ~ ~|~ ~ ~|
 [A,,C]2 [B,,B,] [C,A,]2 (B,,/D,/) | [F,A,]3- [F,A,]2 [F,B,] | [F,A,]2 [F,B,] [F,C]2 [F,B,] | %6
w: ~ ~ ~ ~ *|~ * ~|~ ~ ~ ~|
 [F,A,] [F,A,]2 [F,A,]2 [F,A,]/[F,A,]/ | (A,B,)[C,A,] [C,G,]2 [C,B,] | [F,,F,A,]3- [F,,F,A,]2 || %9
w: ~ ~ ~ ~ ~|~ * ~ ~ ~|joice, *|
 [F,A,] | [B,,B,]2 [B,,B,] [D,B,]2 [F,B,] | [B,D]3- [B,D]2 B, | [F,C]2 [F,B,] [F,E]2 [F,D] | %13
w: re-|joice, re- joice, ~|~ * ~|~ ~ Re- joice,|
 [F,C]3- [F,C]2 [F,A,] | [B,,B,]2 [B,,B,] [D,B,]2 [B,,B,] | [F,A,]3- [F,A,]2 [F,A,] | %16
w: re- * joice,|re- joice, * *||
 [B,,B,]2 [D,B,] [F,B,]2 [F,,F,] | [B,,F,]3- [B,,F,]2 |] %18
w: ||
V:4
 x | x6 | x6 | x5 B, | x6 | x6 | x6 | C,2 x4 | x5 || x | x6 | x5 B, | x6 | x6 | x6 | x6 | x6 | %17
w: |||~||||Re-||||~||||||
 x5 |] %18
w: |

